!!!!SEGMENT: pl-kk--kk-i-1--007-002_anonim--missa-mater-matris-et-in-terra.krn
!!!cenid: 15xx:684
!!!COM: Anonim
!!!COM-rismid: pe30004985
!!!CDT:
!!!CNT:
!!!OPR: Missa Mater matris
!!!OTL: Et in terra
!!!OMV: 002
!!!PDT:
!!!AGN:
!!!SMS-siglum: PL-Kk
!!!SMS-shelfmark: Kk.I.1
!!!SMS-shelfwork: 007-002 M
!!!SMS-variant:
!!!SMS-altvar:
!!!NIFC-rismid: 300257961
!!!URL-scan: http://repozytorium.nifc.pl/skany/pl-kk-nut--i-1
!!!ONB-nifc: UWAGA: Cantus (s. 52v-59r, skan 0055-0061), Altus (s. 52v-59v, skan 0245-0252), Tenor (s. 51r-58r, skan 0439-0446), Bassus (s. 51r-58r, skan 0612-0619). Części Mszy: 1. Kyrie, 2. Et in terra, 3. Patrem, 4. Sanctus, 5. Agnus Dei
**kern	**text	**kern	**text	**kern	**text	**kern	**text
*part4	*part4	*part3	*part3	*part2	*part2	*part1	*part1
*staff4	*staff4	*staff3	*staff3	*staff2	*staff2	*staff1	*staff1
*Iempty	*	*Itenor	*	*Iempty	*	*Iempty	*
*I"BASSVS	*	*I"TENOR	*	*I"ALTVS	*	*I"CANTVS	*
*I'B	*	*I'T	*	*I'A	*	*I'C	*
*ICvox	*	*ICvox	*	*ICvox	*	*ICvox	*
*clefF4	*	*clefC4	*	*clefC3	*	*clefC3	*
*k[b-]	*	*k[b-]	*	*k[b-]	*	*k[b-]	*
*d:	*	*d:	*	*d:	*	*d:	*
*M2/1	*	*M2/1	*	*M2/1	*	*M2/1	*
*met(C|)	*	*met(C|)	*	*met(C)	*	*met(C|)	*
=1-	=1-	=1-	=1-	=1-	=1-	=1-	=1-
!	!	!	!	!	!	!LO:TX:a:t=P:all\right:GLOBAL:problem	!
00r	.	1.G/	et	00r	.	00r	.
.	.	2G/	in	.	.	.	.
=2-	=2-	=2-	=2-	=2-	=2-	=2-	=2-
.	.	1G/	ter-	.	.	.	.
.	.	1F/	-ra	.	.	.	.
=3-	=3-	=3-	=3-	=3-	=3-	=3-	=3-
!	!	!	!	!	!	!LO:TX:t=P:problem=kreska pseudotaktowa	!
00r	.	1.B-\	pax	1.d\	et	1.G/	et
.	.	2G/	ho-	1B-/	in	2G/	in
=4-	=4-	=4-	=4-	=4-	=4-	=4-	=4-
.	.	1B-\	-mi-	.	.	1G/	ter-
.	.	.	.	2G/	ter-	.	.
!	!	!	!	!	!	!LO:TX:t=P:problem=kreska pseudotaktowa	!
.	.	1c\	-(ni)-	1A/	-ra	1F/	-ra
=5-	=5-	=5-	=5-	=5-	=5-	=5-	=5-
!LO:TX:t=P:problem=kreska pseudotaktowa	!	!	!	!	!	!	!
1.GG/	et	1d\	-bus	2G/	.	1.B-/	pax
.	.	.	.	2.d/	pax	.	.
.	.	2G/	bo-	.	.	.	.
.	.	.	.	4c/	.	.	.
!LO:TX:t=P:problem=kreska pseudotaktowa	!	!	!	!	!	!	!
2GG/	in	1d\	-ne	4B-/	ho-	2G/	ho-
.	.	.	.	4A/	-mi-	.	.
=6-	=6-	=6-	=6-	=6-	=6-	=6-	=6-
!	!	!	!	!	!	!LO:TX:t=P:problem=kreska pseudotaktowa	!
1GG/	ter-	.	.	2G/	-ni-	1B-/	-mi-
.	.	4c/	.	2G/	-bus	.	.
.	.	4B-/	.	.	.	.	.
!LO:TX:t=P:problem=kreska pseudotaktowa	!	!	!	!	!	!	!
1FF/	-ra	1A\	.	4A/	.	1c\	-ni-
.	.	.	.	4G/	.	.	.
.	.	.	.	4F/	.	.	.
.	.	.	.	4E/	.	.	.
=7-	=7-	=7-	=7-	=7-	=7-	=7-	=7-
1.BB-/	pax	2G/	.	1D/	.	1d\	-bus
*	*	*2\right	*	*	*	*	*
.	.	2.d\	vo-	.	.	.	.
.	.	.	.	2r	.	2G/	bo-
.	.	4c\	.	.	.	.	.
!LO:TX:t=P:problem=kreska pseudotaktowa	!	!	!	!	!	!	!
2GG/	.	1B-\	.	2G/	ho-	1d\	-ne
=8-	=8-	=8-	=8-	=8-	=8-	=8-	=8-
2BB-/	ho-	.	.	2F/	-mi-	.	.
*	*	*	*	*custos:F	*	*	*
2C/	-mi-	4A/	.	2E/	-ni-	4c/	.
!	!	!	!	!LO:LB:g=original	!	!	!
!	!	!	!	!	!	!LO:TX:t=P:problem=kreska pseudotaktowa	!
.	.	4G/	.	.	.	4B-/	.
*	*	*custos:c	*	*	*	*	*
2D/	-ni-	2F/	.	2F/	-bus	1A/	.
!	!	!LO:PB:g=original	!	!	!	!	!
*2\right	*	*	*	*	*	*	*
2F\	-bus	2c\	.	2A/	bo-	.	.
=9-	=9-	=9-	=9-	=9-	=9-	=9-	=9-
!LO:TX:t=P:problem=kreska pseudotaktowa	!	!	!	!	!	!	!
1G\	bo-	2.B-\	-lun-	2B-/	-ne	2G/	.
.	.	.	.	1G/	vo-	2.d/	vo-
.	.	4c\	.	.	.	.	.
2.GG/	-ne	4d\	.	.	.	.	.
.	.	4e\	.	.	.	4c/	.
.	.	1d\	.	2G/	-lun-	1B-/	.
!LO:TX:t=P:problem=kreska pseudotaktowa	!	!	!	!	!	!	!
4AA/	vo-	.	.	.	.	.	.
=10-	=10-	=10-	=10-	=10-	=10-	=10-	=10-
2BB-/	-lun-	.	-­-	2F/	-ta-	.	-­-
!LO:TX:t=P:problem=kreska pseudotaktowa	!	!	!	!	!	!	!
2C/	-ta-	4c/	.	2E/	-tis	4A/	.
*	*	*	*	*	*	*custos:F	*
!	!	!	!	!	!	!LO:TX:t=P:problem=kreska pseudotaktowa	!
.	.	4B-/	.	.	.	4G/	.
!	!	!	!	!	!	!LO:LB:g=original	!
2D/	-tis	1A\	-ta-	1F/	.	2F/	.
!LO:TX:t=P:problem=kreska pseudotaktowa	!	!	!	!	!	!LO:TX:t=P:problem=kreska pseudotaktowa	!
2F\	.	.	.	.	.	2c/	.
=11-	=11-	=11-	=11-	=11-	=11-	=11-	=11-
*custos:G	*	*	*	*	*	*	*
2G\	.	1G/	-tis	00r	.	2.B-/	-lun-
!LO:LB;g=original	!	!	!	!	!	!	!
*	*ij	*	*	*	*	*	*
4GG/	bo-	.	.	.	.	.	.
!LO:TX:t=P:problem=kreska pseudotaktowa	!	!	!	!	!	!LO:TX:t=P:problem=kreska pseudotaktowa	!
4AA/	.	.	.	.	.	4c/	.
4BB-/	-ne	1F/	.	.	.	4d/	.
4C/	.	.	.	.	.	4e/	.
4D/	vo-	.	.	.	.	1d\	.
!LO:TX:t=P:problem=kreska pseudotaktowa	!	!	!	!	!	!	!
4E/	.	.	.	.	.	.	.
=12-	=12-	=12-	=12-	=12-	=12-	=12-	=12-
4F/	-lun-	0r	.	.	.	.	.
4D/	.	.	.	.	.	.	.
1G\	-ta-	.	.	.	.	4c/	.
!	!	!	!	!	!	!LO:TX:t=P:problem=kreska pseudotaktowa	!
.	.	.	.	.	.	4B-/	.
.	.	.	.	.	.	2A/	-ta-
2F\	.	.	.	.	.	2A/	-tis
=13-	=13-	=13-	=13-	=13-	=13-	=13-	=13-
!LO:TX:t=P:problem=kreska pseudotaktowa	!	!	!	!	!	!LO:TX:t=P:problem=kreska pseudotaktowa	!
1G\	-tis	1r	.	1r	.	1G/	.
*	*Xij	*	*	*	*	*	*
1GG/	lau-	1G/	lau-	1B-/	Lav-	1d\	Lau-
=14-	=14-	=14-	=14-	=14-	=14-	=14-	=14-
!	!	!	!	!	!	!LO:TX:t=P:problem=kreska pseudotaktowa	!
1GG/	-da-	1G/	-da-	1B-/	-da-	1d\	-da-
!LO:TX:t=P:problem=kreska pseudotaktowa	!	!	!	!	!	!	!
1GG/	-(mus)	1G/	-mus	1B-/	-mus	1d\	-m(us)
=15-	=15-	=15-	=15-	=15-	=15-	=15-	=15-
!LO:TX:t=P:problem=kreska pseudotaktowa	!	!	!	!	!	!LO:TX:t=P:problem=kreska pseudotaktowa	!
1D\	te	1F/	te	1A/	te	1d\	te
2r	.	2r	.	2r	.	2r	.
1GG/	be-	1G/	be-	1B-/	be-	1d\	be-
=16-	=16-	=16-	=16-	=16-	=16-	=16-	=16-
!LO:TX:t=P:problem=kreska pseudotaktowa	!	!	!	!	!	!LO:TX:t=P:problem=kreska pseudotaktowa	!
2GG/	-ne-	2G/	-ne-	2B-/	-ne-	2d/	-ne-
2GG/	-di-	2G/	-di-	2B-/	-di-	2d/	-di-
*	*	*custos:G	*	*	*	*	*
!LO:TX:t=P:problem=kreska pseudotaktowa	!	!	!	!	!	!	!
2GG/	-ci-	2G/	-ci-	2B-/	-ci-	2d/	-ci-
!	!	!LO:LB:g=original	!	!	!	!	!
=17-	=17-	=17-	=17-	=17-	=17-	=17-	=17-
1GG/	-mus	1G/	-mus	1B-/	-mus	1d\	-mus-
*	*	*	*	*	*	*custos:f	*
!	!	!	!	!	!	!LO:SIC:v:o=wykreślone słowo	!
!LO:TX:t=P:problem=kreska pseudotaktowa	!	!	!	!	!	!LO:TX:t=P:problem=kreska pseudotaktowa	!
1D\	te	1F/	te	1A/	te	1d\	-te
!	!	!	!	!	!	!LO:PB:g=original	!
=18-	=18-	=18-	=18-	=18-	=18-	=18-	=18-
2r	.	2r	.	2r	.	2r	.
1BB-/	a-	1B-\	a-	1d\	a-	1f\	a-
*	*	*	*	*	*	*2\right	*
*	*	*	*	*custos:d	*	*	*
!LO:TX:t=P:problem=kreska pseudotaktowa	!	!	!	!	!	!LO:TX:t=P:problem=kreska pseudotaktowa	!
2BB-/	-do-	2B-/	-do-	2d/	-do-	2f\	-do-
!	!	!	!	!LO:PB:g=original	!	!	!
=19-	=19-	=19-	=19-	=19-	=19-	=19-	=19-
*custos:BB-	*	*	*	*	*	*	*
1BB-/	-ra-	1B-\	-ra-	1d\	-ra-	1f\	-ra-
!LO:PB:g=original	!	!	!	!	!	!	!
1BB-/	-mus	1B-\	-mus	1d\	-mus	1f\	-mus
=20-	=20-	=20-	=20-	=20-	=20-	=20-	=20-
!LO:TX:t=P:problem=kreska pseudotaktowa	!	!	!	!	!	!LO:TX:t=P:problem=kreska pseudotaktowa	!
1F\	te	1A\	te	1c\	te	1f\	te
2r	.	2r	.	2r	.	2r	.
2F\	glo-	2A/	glo-	2c/	glo-	2f\	glo-
=21-	=21-	=21-	=21-	=21-	=21-	=21-	=21-
2BB-/	-ri-	2B-/	-ri-	2d/	-ri-	2f\	-ri-
!LO:TX:t=P:problem=kreska pseudotaktowa	!	!	!	!	!	!LO:TX:t=P:problem=kreska pseudotaktowa	!
2F\	-fi-	2A/	-fi-	2c/	-fi-	2f\	-fi-
1BB-/	-ca-	1B-\	-ca-	1d\	-ca-	1f\	-ca-
=22-	=22-	=22-	=22-	=22-	=22-	=22-	=22-
!LO:TX:t=P:problem=kreska pseudotaktowa	!	!	!	!	!	!	!
1C/	-mus	1G/	-mus	1c\	-mus	1e\	-mus
!	!	!	!	!	!	!LO:TX:t=P:problem=kreska pseudotaktowa	!
2D/	te	1F/	te	2A/	te	1d\	te
!LO:TX:t=P:problem=kreska pseudotaktowa	!	!	!	!	!	!	!
2D/	gra-	.	.	2A/	gra	.	.
=23-	=23-	=23-	=23-	=23-	=23-	=23-	=23-
!	!	!	!	!	!	!LO:TX:a:t=7	!
2E/	-(ti)-	2r	.	2G/	(ti-	00r	.
2F/	-as	2D/	gra-	2F/	-a)s	.	.
2G/	a-	2E/	-ti-	2E/	a-	.	.
!LO:TX:t=P:problem=kreska pseudotaktowa	!	!	!	!	!	!	!
2A/	-gi-	2F/	-as	2D/	-gi-	.	.
=24-	=24-	=24-	=24-	=24-	=24-	=24-	=24-
2.B-\	-mus	4G/	a-	2.d/	-mus	.	.
.	.	4A/	.	.	.	.	.
.	.	4B-/	.	.	.	.	.
*	*	*custos:d	*	*	*	*	*
!LO:TX:t=P:problem=kreska pseudotaktowa	!	!	!	!	!	!	!
4A/	.	4c/	.	4c/	.	.	.
!	!	!LO:LB:g=original	!	!	!	!	!
4G/	.	2d\	.	4B-/	ti-	.	.
4F/	.	.	.	4A/	-bi	.	.
2.G\	.	2.e-X\	-gi-	2.B-/	.	.	.
=25-	=25-	=25-	=25-	=25-	=25-	=25-	=25-
.	.	.	.	.	.	0r	.
4F\	.	4d\	-mus	4A/	.	.	.
!LO:TX:t=P:problem=kreska pseudotaktowa	!	!	!	!	!	!	!
2D/	.	1d\	ti-	1A/	.	.	.
1E-X\	ti-	.	.	.	.	.	.
*	*	*	*	*custos:A	*	*	*
.	.	2c\	-bi	2G/	.	.	.
!	!	!	!	!LO:LB:g=original	!	!	!
=26-	=26-	=26-	=26-	=26-	=26-	=26-	=26-
*custos:GG	*	*	*	*	*	*	*
!LO:TX:t=P:problem=kreska pseudotaktowa	!	!	!	!	!	!LO:TX:t=P:problem=kreska pseudotaktowa	!
1D\	-bi	1d\	.	1A/	.	1r	.
!LO:LB:g=original	!	!	!	!	!	!	!
1GG/	prop-	1G/	prop-	1B-/	prop-	1g\	prop-
=27-	=27-	=27-	=27-	=27-	=27-	=27-	=27-
!LO:TX:t=P:problem=kreska pseudotaktowa	!	!	!	!	!	!LO:TX:t=P:problem=kreska pseudotaktowa	!
1C/	-t(er)	1A\	-t(er)	1c\	-t(er)	1e\	-t(er)
1D\	ma-	1F/	ma-	1A/	ma-	1f\	ma-
=28-	=28-	=28-	=28-	=28-	=28-	=28-	=28-
!LO:TX:t=P:problem=kreska pseudotaktowa	!	!	!	!	!	!LO:TX:t=P:problem=kreska pseudotaktowa	!
1GG/	-gna(m)	1G/	-gna(m)	1B-/	-gna(m)	1d\	-gna(m)
1C/	.	1E/	glo-	1G/	gl(o-	1e\	gl(o-
=29-	=29-	=29-	=29-	=29-	=29-	=29-	=29-
1AA/	glo-	1F/	-ri-	1A/	-r)i-	1c\	-r)i-
!LO:TX:t=P:problem=kreska pseudotaktowa	!	!	!	!	!	!	!
1D\	-ri-	1D/	-am	1F/	-am	1f\	-am
=30-	=30-	=30-	=30-	=30-	=30-	=30-	=30-
*	*	*	*	*	*	*custos:d	*
!	!	!	!	!	!	!LO:TX:t=P:problem=kreska pseudotaktowa	!
2.C/	-am	1.E/	tu-	1.G/	tu-	0e\	tu-
4BB-/	tu-	.	.	.	.	.	.
1C/	-am	.	.	.	.	.	.
.	.	2F/	-am	2A/	-am	.	.
!	!	!	!	!	!	!LO:LB:g=original	!
=31-	=31-	=31-	=31-	=31-	=31-	=31-	=31-
!LO:TX:t=P:problem=kreska pseudotaktowa	!	!	!	!	!	!LO:TX:t=P:problem=kreska pseudotaktowa	!
1GG/	.	1G/	.	0B-/	.	0.d\	-am
2r	.	2r	.	.	.	.	.
2G\	do-	2B-/	do-	.	.	.	.
=32-	=32-	=32-	=32-	=32-	=32-	=32-	=32-
2F\	-mi-	2A/	-mi-	1r	.	.	.
!LO:TX:t=P:problem=kreska pseudotaktowa	!	!	!	!	!	!	!
2.G\	-ne	2.B-/	-ne	.	.	.	.
.	.	.	.	1B-/	do-	1r	.
*	*	*custos:B-	*	*	*	*	*
4F\	.	4A/	.	.	.	.	.
!	!	!LO:LB:g=original	!	!	!	!	!
4G\	.	4B-/	.	.	.	.	.
!LO:TX:t=P:problem=kreska pseudotaktowa	!	!	!	!	!	!	!
4Eny\	.	4G/	.	.	.	.	.
=33-	=33-	=33-	=33-	=33-	=33-	=33-	=33-
2F\	de-	2A/	de-	2A/	-mi-	1d\	do-
!LO:TX:t=P:problem=kreska pseudotaktowa	!	!	!	!	!	!	!
2G\	-us	2G/	-us	2.B-/	-ne	.	.
2r	.	2r	.	.	.	2d/	-mi-
.	.	.	.	4A/	.	.	.
!	!	!	!	!	!	!LO:TX:t=P:problem=kreska pseudotaktowa	!
2GG/	rex	2G/	rex	4B-/	.	2d/	-ne
.	.	.	.	4G/	.	.	.
=34-	=34-	=34-	=34-	=34-	=34-	=34-	=34-
2D/	ce-	2F/	ce-	2A/	de-	1d\	de-
*custos:GG	*	*	*	*	*	*	*
!LO:TX:t=P:problem=kreska pseudotaktowa	!	!	!	!	!	!	!
2GG/	-le-	2.G/	-le-	2G/	-us	.	.
!LO:LB:g=original	!	!	!	!	!	!	!
!LO:TX:t=P:problem=kreska pseudotaktowa	!	!	!	!	!	!	!
1GG/	-ſtis	.	.	2r	.	2d/	-us
.	.	4A/	.	.	.	.	.
*	*	*	*	*custos:F	*	*	*
!	!	!	!	!	!	!LO:TX:t=P:problem=kreska pseudotaktowa	!
.	.	4B-/	.	2G/	rex	2d/	rex
.	.	4G/	.	.	.	.	.
!	!	!	!	!LO:LB:g=original	!	!	!
=35-	=35-	=35-	=35-	=35-	=35-	=35-	=35-
00r	.	2A/	-ſtis	2F/	ce-	2d/	ce-
.	.	2G/	.	2.G/	-le-	2.d/	-le-
.	.	2r	.	.	.	.	.
.	.	.	.	4A/	.	4c/	.
.	.	2d\	de-	4B-/	.	4d/	.
!	!	!	!	!	!	!LO:TX:t=P:problem=kreska pseudotaktowa	!
.	.	.	.	4G/	.	4B-/	.
=36-	=36-	=36-	=36-	=36-	=36-	=36-	=36-
.	.	2c\	-us	2A/	.	2c/	.
!	!	!	!	!	!	!LO:TX:t=P:problem=kreska pseudotaktowa	!
.	.	2.d\	pa-	2G/	-ſtis	2B-/	-ſtis
.	.	.	.	2r	.	2r	.
.	.	4eny\	.	.	.	.	.
.	.	4f\	.	2B-/	de-	2d/	de-
.	.	4d\	.	.	.	.	.
=37-	=37-	=37-	=37-	=37-	=37-	=37-	=37-
!LO:TX:t=P:problem=kreska pseudotaktowa	!	!	!	!	!	!	!
1r	.	2e\	-ter	2A/	-us	2c/	-us
*	*	*custos:G	*	*	*	*	*
!	!	!	!	!	!	!LO:TX:t=P:problem=kreska pseudotaktowa	!
.	.	2d\	.	2.B-/	pa-	[y2d/	pa-
!	!	!	!	!	!	!LO:N:xstem:cue	!
2r	.	1r	.	.	.	4d/]	.
.	.	.	.	4c/	.	4e\	.
!LO:TX:t=P:problem=kreska pseudotaktowa	!	!	!	!	!	!	!
2D/	de-	.	.	4d/	.	4f\	.
!	!	!	!	!	!	!LO:TX:t=P:problem=kreska pseudotaktowa	!
.	.	.	.	4B-/	.	4d\	.
!	!	!LO:PB:g=original	!	!	!	!	!
=38-	=38-	=38-	=38-	=38-	=38-	=38-	=38-
*	*	*	*	*	*	*custos:d	*
2C/	-us	2G/	de-	2c/	.	2e\	.
!	!	!	!	!	!	!LO:LB:g=original	!
!	!	!	!	!	!	!LO:TX:t=P:problem=kreska pseudotaktowa	!
2.D/	pa-	2.F/	-us	2B-/	-ter	2d/	-ter
.	.	.	.	1r	.	2r	.
4E\	.	4G/	.	.	.	.	.
4F\	.	4A/	.	.	.	2d/	de-
!LO:TX:t=P:problem=kreska pseudotaktowa	!	!	!	!	!	!	!
4D/	.	4F/	.	.	.	.	.
=39-	=39-	=39-	=39-	=39-	=39-	=39-	=39-
2E/	-ter	2G/	.	2G/	om-	2c/	-us
!	!	!	!	!	!	!LO:TX:t=P:problem=kreska pseudotaktowa	!
2D/	.	2A/	pa-	2F/	-ni-	2.d/	pa-
2r	.	2B-/	-t(er)	4G/	-po-	.	.
.	.	.	.	4A/	.	4c/	.
!LO:TX:t=P:problem=kreska pseudotaktowa	!	!	!	!	!	!	!
2G\	om-	2B-/	om-	4B-/	.	4d/	.
*	*	*	*	*custos:A	*	*	*
!	!	!	!	!	!	!LO:TX:t=P:problem=kreska pseudotaktowa	!
.	.	.	.	4G/	.	4B-/	.
!	!	!	!	!LO:LB:g=original	!	!	!
=40-	=40-	=40-	=40-	=40-	=40-	=40-	=40-
2F\	-ni-	2A/	-ni-	2A/	-tens	2c/	-ter
!	!	!	!	!	!	!LO:TX:t=P:problem=kreska pseudotaktowa	!
2.G\	-po-	2.B-/	-po-	2G/	.	2B-/	.
.	.	.	.	00r	.	2r	.
4F\	.	4A/	.	.	.	.	.
!	!	!	!	!	!	!LO:TX:t=P:problem=kreska pseudotaktowa	!
4G\	.	4B-/	.	.	.	2B-/	om-
!LO:TX:t=P:problem=kreska pseudotaktowa	!	!	!	!	!	!	!
4E\	.	4G/	.	.	.	.	.
=41-	=41-	=41-	=41-	=41-	=41-	=41-	=41-
2F\	-tens	2A/	.	.	.	2A/	-ni-
!LO:TX:t=P:problem=kreska pseudotaktowa	!	!	!	!	!	!	!
2G\	.	2.G/	.	.	.	2.B-/	-po-
0r	.	.	.	.	.	.	.
.	.	4F/	.	.	.	4A/	.
.	.	4G/	.	.	.	4B-/	.
!	!	!	!	!	!	!LO:TX:t=P:problem=kreska pseudotaktowa	!
.	.	4E/	.	.	.	4G/	.
=42-	=42-	=42-	=42-	=42-	=42-	=42-	=42-
.	.	4F/	.	.	.	1A/	.
.	.	4G/	.	.	.	.	.
.	.	4A/	.	.	.	.	.
*	*	*custos:G	*	*	*	*	*
.	.	4F/	.	.	.	.	.
!	!	!LO:LB:g=original	!	!	!	!	!
!	!	!	!	!	!	!LO:TX:t=P:problem=kreska pseudotaktowa	!
1r	.	1G/	-tens	1r	.	1G/	-tens
=43-	=43-	=43-	=43-	=43-	=43-	=43-	=43-
!LO:TX:t=P:problem=kreska pseudotaktowa	!	!	!	!	!	!	!
2r	.	2r	.	2r	.	2r	.
!LO:TX:t=P:problem=kreska pseudotaktowa	!	!	!	!	!	!LO:TX:t=P:problem=kreska pseudotaktowa	!
2GG/	do-	2G/	do-	2B-/	do-	2d\	do-
2D/	-mi-	2F/	-mi-	2A/	-mi-	2d\	-mi-
*custos:GG	*	*	*	*	*	*	*
!	!	!	!	!	!	!LO:TX:t=P:problem=kreska pseudotaktowa	!
2GG/	-ne	2D/	-ne	2G/	-ne	2d\	-ne
!LO:LB:g=original	!	!	!	!	!	!	!
=44-	=44-	=44-	=44-	=44-	=44-	=44-	=44-
4GG/	fi-	1G/	fi-	1B-/	fi-	1d\	fi-
4AA/	-li	.	.	.	.	.	.
4BB-/	.	.	.	.	.	.	.
!LO:TX:t=P:problem=kreska pseudotaktowa	!	!	!	!	!	!	!
4C/	.	.	.	.	.	.	.
*	*	*	*	*	*	*custos:f	*
2D/	.	2F/	-li	2A/	-li	2d\	-li
!	!	!	!	!	!	!LO:LB:g=original	!
1BB-/	v-	1B-\	v-	1d\	u-	1f\	v
=45-	=45-	=45-	=45-	=45-	=45-	=45-	=45-
!LO:TX:t=P:problem=kreska pseudotaktowa	!	!	!	!	!	!LO:TX:t=P:problem=kreska pseudotaktowa	!
2BB-/	-ni-	2B-/	-ni-	2d/	-ni-	2f\	ni-
2BB-/	-ge-	2B-/	-ge-	2d/	-ge-	2f\	-ge-
2BB-/	-ni-	2B-/	-ni-	2d/	-ni-	2f\	-ni-
=46-	=46-	=46-	=46-	=46-	=46-	=46-	=46-
!	!	!	!	!	!	!LO:TX:t=P:problem=kreska pseudotaktowa	!
1F\	-te	1A\	-te	1c\	-te	1f\	-te
!LO:TX:t=P:problem=kreska pseudotaktowa	!	!	!	!	!	!	!
1D\	Je-	1B-\	Je-	1d\	Je-	1f\	Je-
=47-	=47-	=47-	=47-	=47-	=47-	=47-	=47-
1E\	-ſu	1G/	-ſu	1B-/	-ſu	1g\	-ſu
0C/	Chri-	0G/	Chr(i-	0c\	Chr(i-	0e\	Chr(i-
=48-	=48-	=48-	=48-	=48-	=48-	=48-	=48-
!LO:TX:t=P:problem=kreska pseudotaktowa	!	!	!	!	!	!LO:TX:t=P:problem=kreska pseudotaktowa	!
0D\	-ste	0F/	-st)e	1A/	-st)e	0d\	-st)e
=49-	=49-	=49-	=49-	=49-	=49-	=49-	=49-
.	.	.	.	2r	.	.	.
.	.	.	.	2d/	do-	.	.
2r	.	00r	.	2d/	-mi-	1r	.
*	*	*	*	*custos:B-	*	*	*
2G\	Do-	.	.	2d/	-ne	.	.
!	!	!	!	!LO:PB:g=original	!	!	!
=50-	=50-	=50-	=50-	=50-	=50-	=50-	=50-
2G\	-mi-	.	.	2.B-/	de-	2r	.
!LO:TX:t=P:problem=kreska pseudotaktowa	!	!	!	!	!	!LO:TX:t=P:problem=kreska pseudotaktowa	!
2G\	-ne	.	.	.	.	2g\	do-
.	.	.	.	4G/	-us	.	.
2.E/	de-	.	.	2G/	a-	2g\	-mi-
!	!	!	!	!	!	!LO:TX:t=P:problem=kreska pseudotaktowa	!
.	.	.	.	1c\	-gnus	2g\	-ne
4C/	-us	.	.	.	.	.	.
=51-	=51-	=51-	=51-	=51-	=51-	=51-	=51-
2C/	.	.	.	.	.	2e\	de-
*custos:F	*	*	*	*	*	*	*
1F\	a-	.	.	2c/	.	1c\	-us
.	.	0r	.	2.A/	de-	.	.
!LO:PB:g=original	!	!	!	!	!	!	!
!LO:TX:t=P:problem=kreska pseudotaktowa	!	!	!	!	!	!LO:TX:t=P:problem=kreska pseudotaktowa	!
2F\	-gnus	.	.	.	.	2f\	a-
.	.	.	.	4F/	-i	.	.
=52-	=52-	=52-	=52-	=52-	=52-	=52-	=52-
2.D/	de-	.	.	1F/	.	2.f\	-gnus
!LO:TX:t=P:problem=kreska pseudotaktowa	!	!	!	!	!	!LO:TX:t=P:problem=kreska pseudotaktowa	!
4BB-/	-i	.	.	.	.	4d/	de-
2BB-/	.	2r	.	2r	.	2d/	-i
2GG/	fi-	2G/	fi-	2B-/	fi-	2d/	fi-
=53-	=53-	=53-	=53-	=53-	=53-	=53-	=53-
2BB-/	-li-	2G/	-li-	2B-/	-li-	2d/	-li-
*	*	*	*	*	*	*custos:d	*
!LO:TX:t=P:problem=kreska pseudotaktowa	!	!	!	!	!	!LO:TX:t=P:problem=kreska pseudotaktowa	!
2GG/	-us	2G/	-us	2B-/	-us	2d/	-us
*	*	*custos:F	*	*	*	*	*
!	!	!	!	!	!	!LO:PB:g=original	!
2.BB-/	pa-	1G/	pa-	1B-/	pa-	1d\	pa-
4C/	-tris	.	.	.	.	.	.
!	!	!LO:LB:g=original	!	!	!	!	!
=54-	=54-	=54-	=54-	=54-	=54-	=54-	=54-
!LO:TX:t=P:problem=kreska pseudotaktowa	!	!	!	!	!	!LO:TX:t=P:problem=kreska pseudotaktowa	!
1D\	.	1F/	-tris	1A/	-tris	1d\	-tris
2r	.	2r	.	2r	.	2r	.
!	!	!	!	!	!	!LO:TX:t=P:problem=kreska pseudotaktowa	!
*	*ij	*	*	*	*ij	*	*
2GG/	fi-	2G/	fi-	2B-/	fi-	2d/	fi-
=55-	=55-	=55-	=55-	=55-	=55-	=55-	=55-
2BB-/	-li-	2G/	-li-	2B-/	-li-	2d/	-li-
!LO:TX:t=P:problem=kreska pseudotaktowa	!	!	!	!	!	!	!
2GG/	-us	2G/	-us	2B-/	-us	2d/	-us
2.BB-/	pa-	1G/	pa-	1B-/	pa-	1d\	pa-
4C/	.	.	.	.	.	.	.
=56-	=56-	=56-	=56-	=56-	=56-	=56-	=56-
*	*	*	*	*custos:d	*	*	*
0Dl\;	-tris	0Fl\	-tris	0Al\	-tris	0dl\	-tris
*	*Xij	*	*	*	*Xij	*	*
!	!	!	!	!LO:LB:g=original	!	!	!
=57||	=57||	=57	=57	=57||	=57||	=57||	=57||
*	*	*	*	*	*	*clefC2	*
*	*	*	*	*	*	*k[b-]	*
*M2/1	*	*	*	*	*	*M2/1	*
*met(C|)	*	*	*	*	*	*met(C|)	*
!LO:TX:t=P:problem=kreska pseudotaktowa	!	!	!	!	!	!	!
!	!	!	!	!	!	!LO:TX:a:t=6	!
1G\	Qui	00r	.	1r	.	00r	.
2G\	tol-	.	.	1d\	Qui	.	.
*custos:F	*	*	*	*	*	*	*
!LO:TX:t=P:problem=kreska pseudotaktowa	!	!	!	!	!	!	!
2G\	-lis	.	.	.	.	.	.
!LO:LB:g=original	!	!	!	!	!	!	!
=58-	=58-	=58-	=58-	=58-	=58-	=58-	=58-
2F\	pec-	.	.	2d/	tol-	.	.
!LO:TX:t=P:problem=kreska pseudotaktowa	!	!	!	!	!	!	!
2D/	-ca-	.	.	2d/	-lis	.	.
2E\	-ta	.	.	2c/	pec-	.	.
2F\	mun-	.	.	2A/	-ca-	.	.
=59-	=59-	=59-	=59-	=59-	=59-	=59-	=59-
!LO:TX:t=P:problem=kreska pseudotaktowa	!	!	!	!	!	!	!
1G\	-di	0r	.	2B-/	-ta	0r	.
.	.	.	.	2c/	m(u)n-	.	.
1r	.	.	.	1d\	-di	.	.
=60-	=60-	=60-	=60-	=60-	=60-	=60-	=60-
!	!	!	!	!	!	!LO:TX:t=P:problem=kreska pseudotaktowa	!
1.G\	mi-	2r	.	2r	.	2r	.
.	.	1d\	mi-	1g\	mi-	1b-\	mi-
*	*	*	*	*2\right	*	*	*
!LO:TX:t=P:problem=kreska pseudotaktowa	!	!	!	!	!	!LO:TX:t=P:problem=kreska pseudotaktowa	!
2G\	-ſe-	2d\	-ſe-	2g\	-ſe-	2b-\	-ſe-
=61-	=61-	=61-	=61-	=61-	=61-	=61-	=61-
2G\	-re-	2d\	-re-	2g\	-re-	2b-\	-re-
2G\	-re	2d\	-re	2g\	-re	2b-\	-re
1G\	no-	1d\	no-	1g\	no-	1b-\	no-
=62-	=62-	=62-	=62-	=62-	=62-	=62-	=62-
!LO:TX:t=P:problem=kreska pseudotaktowa	!	!	!	!	!	!LO:TX:t=P:problem=kreska pseudotaktowa	!
0D\	-bis	1d\	-bis	1f\	-bis	1a\	-bis
.	.	00r	.	2r	.	2r	.
!	!	!	!	!	!	!LO:TX:t=P:problem=kreska pseudotaktowa	!
.	.	.	.	2d/	qui	2f\	qui
=63-	=63-	=63-	=63-	=63-	=63-	=63-	=63-
*	*	*	*	*	*	*custos:e	*
00r	.	.	.	2e/	tol-	2g\	tol-
!	!	!	!	!	!	!LO:LB:g=original	!
!	!	!	!	!	!	!LO:TX:t=P:problem=kreska pseudotaktowa	!
.	.	.	.	2c/	-lis	2e/	-lis
.	.	.	.	2d/	p(ec)-	2f/	pec-
.	.	.	.	2e/	-c(a)-	2g/	-ca-
=64-	=64-	=64-	=64-	=64-	=64-	=64-	=64-
.	.	.	.	2f/	-ta	2a/	-ta
.	.	.	.	1g\	mun-	1b-\	mun-
.	.	0r	.	.	.	.	.
.	.	.	.	4f/	.	4a/	.
*	*	*	*	*custos:f	*	*	*
!	!	!	!	!	!	!LO:TX:t=P:problem=kreska pseudotaktowa	!
.	.	.	.	4e/	.	4g/	.
!	!	!	!	!LO:LB:g=original	!	!	!
=65-	=65-	=65-	=65-	=65-	=65-	=65-	=65-
!	!	!	!	!	!	!LO:TX:t=P:problem=kreska pseudotaktowa	!
0r	.	.	.	1f\	-di	1a\	-di
.	.	1r	.	1r	.	1r	.
=66-	=66-	=66-	=66-	=66-	=66-	=66-	=66-
1.D\	Su-	1.d\	ſu-	1.f\	ſu-	1.a\	Su-
!LO:TX:t=P:problem=kreska pseudotaktowa	!	!	!	!	!	!LO:TX:t=P:problem=kreska pseudotaktowa	!
2D/	-ſci-	2d\	-sci-	2f\	-sci-	2a\	-ſci-
=67-	=67-	=67-	=67-	=67-	=67-	=67-	=67-
1D\	-pe	1d\	-pe	1f\	-pe	1a\	-pe
2G\	de-	2d\	de-	2g\	de-	2b-\	de-
*	*	*custos:d	*	*	*	*	*
!LO:TX:t=P:problem=kreska pseudotaktowa	!	!	!	!	!	!LO:TX:t=P:problem=kreska pseudotaktowa	!
2G\	-pre-	2d\	-pre-	2g\	-pre-	2b-\	-pre-
!	!	!LO:LB:g=original	!	!	!	!	!
=68-	=68-	=68-	=68-	=68-	=68-	=68-	=68-
2G\	-ca-	2d\	-ca-	2g\	-ca-	2b-\	-ca-
2G\	-ti-	2d\	-ti-	2g\	-ti-	2b-\	-ti-
!LO:TX:t=P:problem=kreska pseudotaktowa	!	!	!	!	!	!	!
1D\	-o-	1d\	-o-	1f\	-o-	1a\	-o-
=69-	=69-	=69-	=69-	=69-	=69-	=69-	=69-
*custos:C	*	*	*	*	*	*	*
!	!	!	!	!	!	!LO:TX:t=P:problem=kreska pseudotaktowa	!
1G\	-nem	1d\	-nem	1g\	-nem	1b-\	-nem
!LO:LB:g=original	!	!	!	!	!	!	!
1C/	noſ-	1c\	noſ-	1e\	noſ-	1g\	noſ-
=70-	=70-	=70-	=70-	=70-	=70-	=70-	=70-
*	*	*	*	*	*	*custos:f	*
!LO:TX:t=P:problem=kreska pseudotaktowa	!	!	!	!	!	!LO:TX:t=P:problem=kreska pseudotaktowa	!
0F\	-tra(m)	1A\	-tra(m)	1f\	-tra(m)	1a\	-tra(m)
.	.	1r	.	1r	.	2r	.
!	!	!	!	!	!	!LO:LB:g=original	!
*	*	*	*	*	*	*clefC3	*
.	.	.	.	.	.	2.f\	qui
=71-	=71-	=71-	=71-	=71-	=71-	=71-	=71-
!LO:TX:a:t=15	!	!	!	!	!	!	!
00r	.	2.B-/	qui	2.d/	qui	.	.
.	.	.	.	.	.	4e/	.
!	!	!	!	!	!	!LO:TX:t=P:problem=kreska pseudotaktowa	!
.	.	.	.	.	.	2f\	ſe-
.	.	4A/	ſe-	4c/	ſe-	.	.
.	.	2B-\	-des	2d/	-des	2g\	-des
.	.	2c\	.	2e\	.	2.a\	.
=72-	=72-	=72-	=72-	=72-	=72-	=72-	=72-
.	.	2.d\	.	1f\	.	.	.
.	.	.	.	.	.	4g\	.
.	.	.	.	.	.	4f\	.
!	!	!	!	!	!	!LO:TX:t=P:problem=kreska pseudotaktowa	!
.	.	4c/	.	.	.	4e\	.
!	!	!	!	!	!	!LO:TX:t=P:problem=kreska pseudotaktowa	!
.	.	4B-/	.	2r	.	2d/	.
.	.	4A/	.	.	.	.	.
.	.	2G/	.	2B-/	ad	2r	.
=73-	=73-	=73-	=73-	=73-	=73-	=73-	=73-
00r	.	2r	.	2B-/	dex-	2d/	ad
*	*	*	*	*custos:c	*	*	*
.	.	2G/	ad	2B-/	-te-	2e\	dex-
!	!	!	!	!LO:LB:g=original	!	!	!
.	.	2A/	dex-	2c/	-ram	2f\	-te-
!	!	!	!	!	!	!LO:TX:t=P:problem=kreska pseudotaktowa	!
.	.	2B-/	-te-	2d/	p(at)-	2g\	-ram
=74-	=74-	=74-	=74-	=74-	=74-	=74-	=74-
.	.	2c/	-ram	1c\	-ris	2.e/	pa-
.	.	2.A/	.	.	.	.	.
.	.	.	.	.	.	4d/	-tris
.	.	.	.	2r	.	2c/	.
*	*	*custos:F	*	*	*	*	*
.	.	4F/	pa-	.	.	.	.
!	!	!LO:PB:g=original	!	!	!	!	!
!	!	!	!	!	!	!LO:TX:t=P:problem=kreska pseudotaktowa	!
.	.	2F/	-tris	2A/	mi-	2r	.
=75-	=75-	=75-	=75-	=75-	=75-	=75-	=75-
00r	.	2r	.	2A/	-ſe-	2c/	mi-
.	.	2F/	mi-	2A/	-re-	2d/	-ſe-
*	*	*	*	*	*	*custos:f	*
.	.	2G/	-ſe-	2B-/	-re	2e/	-re-
!	!	!	!	!	!	!LO:LB:g=original	!
.	.	2A/	-re-	2c/	no-	2.f\	-re
=76-	=76-	=76-	=76-	=76-	=76-	=76-	=76-
.	.	2.B-/	-re	2d/	-bis	.	.
.	.	.	.	.	.	4e/	.
.	.	.	.	2.G/	.	4d/	.
!	!	!	!	!	!	!LO:TX:t=P:problem=kreska pseudotaktowa	!
.	.	4A/	.	.	.	4c/	.
.	.	4G/	.	.	.	2d/	.
.	.	4F/	.	4A/	.	.	.
.	.	2G/	.	2B-/	.	2.e\	.
=77-	=77-	=77-	=77-	=77-	=77-	=77-	=77-
0r	.	2C/	.	2c/	.	.	.
.	.	.	.	.	.	4d/	.
.	.	2D/	no-	1B-/	.	1d\	no-
.	.	1E/	-bis	.	.	.	.
.	.	.	.	4A/	.	2c/	-bis
.	.	.	.	4G/	.	.	.
=78-	=78-	=78-	=78-	=78-	=78-	=78-	=78-
!LO:TX:t=P:problem=kreska pseudotaktowa	!	!	!	!	!	!LO:TX:t=P:problem=kreska pseudotaktowa	!
1r	.	1D/	.	1A/	.	1d\	.
2r	.	2r	.	2r	.	2r	.
!LO:TX:t=P:problem=kreska pseudotaktowa	!	!	!	!	!	!	!
2D/	quo-	2A/	qu(o-	2d/	quo-	2f\	qu(o-
=79-	=79-	=79-	=79-	=79-	=79-	=79-	=79-
2D/	-ni-	2A/	-ni-	2d/	-ni-	2f\	-ni-
!	!	!	!	!	!	!LO:TX:t=P:problem=kreska pseudotaktowa	!
2D/	-a(m)	2A/	-am)	2d/	-a(m)	2f\	-am)
*	*	*	*	*custos:d	*	*	*
1AA/	tu	1A\	tu	1c\	tu	1e\	tu
!	!	!	!	!LO:PB:g=original	!	!	!
=80-	=80-	=80-	=80-	=80-	=80-	=80-	=80-
!LO:TX:t=P:problem=kreska pseudotaktowa	!	!	!	!	!	!LO:TX:t=P:problem=kreska pseudotaktowa	!
1D\	ſo-	1A\	ſo-	1d\	ſo-	1f\	ſo-
1GG/	-lus	1G/	-lus	1B-/	-lus	1d\	-lus
=81-	=81-	=81-	=81-	=81-	=81-	=81-	=81-
0C/	s(an)-	0G/	ſan-	0c\	S(an)-	0e\	ſan-
=82-	=82-	=82-	=82-	=82-	=82-	=82-	=82-
!LO:TX:t=P:problem=kreska pseudotaktowa	!	!	!	!	!	!LO:TX:t=P:problem=kreska pseudotaktowa	!
1BB-/	-ctus	1B-\	-ctus	1d\	-ctus	1f\	-ctus
2r	.	2r	.	2r	.	2r	.
*	*	*custos:A	*	*	*	*custos:f	*
2D/	tu	2A/	tu	2d/	tu	2f\	tu
!	!	!LO:LB:g=original	!	!	!	!LO:PB:g=original	!
=83-	=83-	=83-	=83-	=83-	=83-	=83-	=83-
2AA/	ſo-	2A/	ſo-	2c/	ſo-	2f\	ſo-
!LO:TX:t=P:problem=kreska pseudotaktowa	!	!	!	!	!	!LO:TX:t=P:problem=kreska pseudotaktowa	!
2D/	-lus	2A/	-lus	2d/	-lus	2f\	-lus
1GG/	do-	1G/	do-	1B-/	do-	1d\	do-
=84-	=84-	=84-	=84-	=84-	=84-	=84-	=84-
1C/	-mi-	1G/	-mi-	1c\	-mi-	1e\	-mi-
!LO:TX:t=P:problem=kreska pseudotaktowa	!	!	!	!	!	!LO:TX:t=P:problem=kreska pseudotaktowa	!
1BB-/	-n(us)	1B-\	-nus	1d\	-nus	1f\	-nus
=85-	=85-	=85-	=85-	=85-	=85-	=85-	=85-
2r	.	2r	.	2r	.	2r	.
2D/	tu	2F/	tu	2d/	tu	2f\	tu
!LO:TX:t=P:problem=kreska pseudotaktowa	!	!	!	!	!	!	!
1C/	ſo-	1c\	ſo-	1e\	ſo-	1g\	ſo-
=86-	=86-	=86-	=86-	=86-	=86-	=86-	=86-
!	!	!	!	!	!	!LO:TX:t=P:problem=kreska pseudotaktowa	!
1F\	-lus	1A\	-lus	1c\	-lus	1a\	-lus
*custos:E	*	*	*	*	*	*	*
!LO:TX:t=P:problem=kreska pseudotaktowa	!	!	!	!	!	!	!
1D\	al-	1B-\	al-	1d\	al-	1f\	al-
!LO:LB:g=original	!	!	!	!	!	!	!
=87-	=87-	=87-	=87-	=87-	=87-	=87-	=87-
1E\	-tiſ-	1G/	-tiſ-	1B-/	-tiſ-	1g\	-tiſ-
1C/	-ſi-	1G/	-ſi-	1c\	-ſi-	1e\	-ſi-
=88-	=88-	=88-	=88-	=88-	=88-	=88-	=88-
!LO:TX:t=P:problem=kreska pseudotaktowa	!	!	!	!	!	!LO:TX:t=P:problem=kreska pseudotaktowa	!
1BB-/	-mus	1B-\	-mus	1d\	-mu	1f\	-mus
1r	.	1r	.	1r	.	1r	.
=89-	=89-	=89-	=89-	=89-	=89-	=89-	=89-
0D\	Je-	0A\	Je-	0d\	Je-	0f\	Je-
=90-	=90-	=90-	=90-	=90-	=90-	=90-	=90-
!LO:TX:t=P:problem=kreska pseudotaktowa	!	!	!	!	!	!LO:TX:t=P:problem=kreska pseudotaktowa	!
1E\	-ſu	1G/	-ſu	1B-/	-ſu	1g\	-ſu
0C/	Chri-	0c\	Chr(i-	0e\	Chr(i-	0g\	Chri-
=91-	=91-	=91-	=91-	=91-	=91-	=91-	=91-
*	*	*	*	*custos:B-	*	*custos:d	*
1Dl\;	-Ste	1Al\	-st)e	1dl\	-st)e	1fl\	-ſtr
!	!	!	!	!LO:LB:g=original	!	!	!
=92||-	=92||-	=92-	=92-	=92||-	=92||-	=92||-	=92||-
*clefF3	*	*	*	*	*	*k[b-]	*
*k[b-]	*	*	*	*	*	*	*
*M3/1	*	*M3/1	*	*M3/1	*	*M3/1	*
!LO:SIC:v:o:t=powtórzony bemol	!	!	!	!	!	!LO:TX:a:t=4	!
1B-\	Cum	00.r	.	0.r	.	00.r	.
1B-\	San-	.	.	.	.	.	.
!LO:TX:t=P:problem=kreska pseudotaktowa	!	!	!	!	!	!	!
1c\	-cto	.	.	.	.	.	.
=93-	=93-	=93-	=93-	=93-	=93-	=93-	=93-
1.d\	Spi-	.	.	1B-/	Cum	.	.
.	.	.	.	1B-/	S(an)c-	.	.
4c\	.	.	.	.	.	.	.
4B-\	.	.	.	.	.	.	.
!LO:TX:t=P:problem=kreska pseudotaktowa	!	!	!	!	!	!	!
1A\	.	.	.	1c\	-to	.	.
=94-	=94-	=94-	=94-	=94-	=94-	=94-	=94-
1B-\	.	1B-\	Cum	1.d\	Spi-	00.r	.
1G\	-ri-	1B-\	S(an)-	.	.	.	.
.	.	.	.	4c/	.	.	.
.	.	.	.	4B-/	.	.	.
*custos:G	*	*	*	*	*	*	*
*	*	*custos:d	*	*	*	*	*
!LO:TX:t=P:problem=kreska pseudotaktowa	!	!	!	!	!	!	!
1F\	-tu	1c\	-cto	1A/	.	.	.
!LO:PB:g=original	!	!LO:LB:g=original	!	!	!	!	!
=95-	=95-	=95-	=95-	=95-	=95-	=95-	=95-
1B-\	in	1d\	Spi-	1B-/	.	.	.
!LO:TX:t=P:problem=kreska pseudotaktowa	!	!	!	!	!	!	!
1B-\	glo-	2d\	-ri-	1G/	-ri-	.	.
.	.	4c\	-tu	.	.	.	.
.	.	4B-\	.	.	.	.	.
1c\	-ri-	1A\	.	1F/	-tu	.	.
=96-	=96-	=96-	=96-	=96-	=96-	=96-	=96-
!	!	!	!	!	!	!LO:TX:t=P:problem=kreska pseudotaktowa	!
1.d\	-a	0B-\	.	1B-/	in	1d\	Cum
.	.	.	.	1B-/	glo-	1d\	(san)-
4c\	.	.	.	.	.	.	.
4B-\	.	.	.	.	.	.	.
!LO:TX:t=P:problem=kreska pseudotaktowa	!	!	!	!	!	!LO:TX:t=P:problem=kreska pseudotaktowa	!
1A\	.	1r	.	1c\	-ri-	1e\	-cto
=97-	=97-	=97-	=97-	=97-	=97-	=97-	=97-
1.D/	de-	1.F/	in	1.d\	-a	1.f\	Spi-
2E/	-i	2G/	glo-	2c/	.	2e\	-ri-
!LO:TX:t=P:problem=kreska pseudotaktowa	!	!	!	!	!	!LO:TX:t=P:problem=kreska pseudotaktowa	!
1F\	.	1A\	-ri-	1A/	.	1c\	-tu
=98-	=98-	=98-	=98-	=98-	=98-	=98-	=98-
1.BB-/	.	1.D/	-a	1B-/	.	1d\	.
.	.	.	.	1G/	de-	1B-/	.
2C/	.	2E/	.	.	.	.	.
*	*	*	*	*custos:B-	*	*	*
!LO:TX:t=P:problem=kreska pseudotaktowa	!	!	!	!	!	!LO:TX:t=P:problem=kreska pseudotaktowa	!
1D/	.	1F/	.	1F/	-i	1A/	.
!	!	!	!	!LO:LB:g=original	!	!	!
=99-	=99-	=99-	=99-	=99-	=99-	=99-	=99-
1GG/	.	0G/	de-	0B-/	pa-	0d\	in
1G\	pat-	.	.	.	.	.	.
!LO:TX:t=P:problem=kreska pseudotaktowa	!	!	!	!	!	!LO:TX:t=P:problem=kreska pseudotaktowa	!
1E/	-ris	1G/	-i	1c\	-tris	1e\	glo-
=100-	=100-	=100-	=100-	=100-	=100-	=100-	=100-
1D/	a-	1A\	pa-	1d\	a-	1f\	-ri-
!	!	!	!	!	!	!LO:TX:t=P:problem=kreska pseudotaktowa	!
1G\	.	0G/	-tris	1B-/	.	0g\	-a
!LO:TX:t=P:problem=kreska pseudotaktowa	!	!	!	!	!	!	!
1E/	.	.	.	1c\	.	.	.
=101-	=101-	=101-	=101-	=101-	=101-	=101-	=101-
*custos:G	*	*	*	*	*	*	*
1D/	.	1A\	A-	1d\	.	1f\	de-
!LO:LB:g=original	!	!	!	!	!	!	!
*clefF4	*	*	*	*	*	*	*
*	*	*	*	*	*	*custos:f	*
!	!	!	!	!	!	!LO:TX:t=P:problem=kreska pseudotaktowa	!
1G\	.	0G/	.	1B-/	.	0g\	-i
!LO:TX:t=P:problem=kreska pseudotaktowa	!	!	!	!	!	!	!
1E\	.	.	.	1c\	.	.	.
!	!	!	!	!	!	!LO:LB:g=original	!
=102-	=102-	=102-	=102-	=102-	=102-	=102-	=102-
1D\	.	1A\	.	1.d\	.	1.f\	pa-
1GG/	.	0D/	.	.	.	.	.
.	.	.	.	2c/	.	2e/	.
!LO:TX:t=P:problem=kreska pseudotaktowa	!	!	!	!	!	!	!
1D\	.	.	.	2B-/	.	2d/	-tris
!	!	!	!	!	!	!LO:TX:t=P:problem=kreska pseudotaktowa	!
.	.	.	.	2A/	.	2c/	.
=103-	=103-	=103-	=103-	=103-	=103-	=103-	=103-
*	*	*col	*	*	*	*lig	*
1GG/	.	1G/	.	1B-/	.	1d\	A-
*	*	*custos:G	*	*	*	*	*
1.C/	.	1E/	.	1.c\	.	1.e\	.
!	!	!LO:LB:g=original	!	!	!	!	!
.	.	0G/	.	.	.	.	.
*	*	*	*	*	*	*Xlig	*
!LO:TX:t=P:problem=kreska pseudotaktowa	!	!	!	!	!	!LO:TX:t=P:problem=kreska pseudotaktowa	!
2D/	.	.	.	2B-/	.	2d/	-men
=104-	=104-	=104-	=104-	=104-	=104-	=104-	=104-
1E\	.	.	.	1c\	.	0g\	.
0D\	-men	0A\	.	0d\	.	.	.
.	.	.	.	.	.	1f\	.
*	*	*Xcol	*	*	*	*	*
=105-	=105-	=105-	=105-	=105-	=105-	=105-	=105-
1BB-/	.	00.Gl\	-men	1d\	.	00.lg\;	.
0C/	.	.	.	0e\	-men	.	.
=106-	=106-	=106-	=106-	=106-	=106-	=106-	=106-
0.GGl\	.	.	.	0.dl\	.	.	.
==	==	==	==	==	==	==	==
*-	*-	*-	*-	*-	*-	*-	*-
!!!system-decoration: [(s1,s2,s3,s4)]
!!!RDF**kern: l = terminal long
!!!ENC: Mateusz Solarz
!!!END: 2022-02-17
!!!AIN: 3 empty 1 tenor
!!!ENC: Leszek Kubiak
!!!END: 2022-02-23
